X: 30343
M: 3/8
L: 1/16
K: C
e4fd | ceagec | BdgfdB | cGABcd |\
e4fd | ceagec | BdgfdB | c4 :|
|: ec |\
e4fd | ceagec | BdgfdB | c4 :|
|: AB |\
c3dcB | Acfcac | ecgebe | fagfed |\
c3dcB | Acfcac | ecgebe | "^D.C."f4 :|


